!!!!SEGMENT: Arc2004-O_sacrum_convivium.krn
!!!id: Arc2004
!!!AGN: Motet
!!!voices: 5
!!!COM: Jacques Arcadelt
!!!OTL: O sacrum convivium
**kern	**kern	**kern	**kern	**kern
*part5	*part4	*part3	*part2	*part1
*staff5	*staff4	*staff3	*staff2	*staff1
*I"Bassus	*I"Tenor II	*I"Tenor I	*I"Altus	*I"Superius
*I'B	*I'T. II	*I'T. I	*I'A	*I'S
*clefF4	*clefGv2	*clefGv2	*clefGv2	*clefG2
*k[b-]	*k[b-]	*k[b-]	*k[b-]	*k[b-]
*F:	*F:	*F:	*F:	*F:
*M2/1	*M2/1	*M2/1	*M2/1	*M2/1
*met(C|)	*met(C|)	*met(C|)	*met(C|)	*met(C|)
!!section: Prima pars: O sacrum convivium
!!!OMD: Prima pars: O sacrum convivium
=1	=1	=1	=1	=1
0r	1.F	0r	1.A	0r
.	2G	.	2B-y	.
=2	=2	=2	=2	=2
0r	2A	0r	2c	1.f
.	2.B-y	.	2.d	.
.	4A	.	4c	.
.	[2F	.	[2A	2f
=3	=3	=3	=3	=3
0r	2F]	0r	2A]	1d
.	2G	.	2B-y	.
.	2E	.	2G	1c
.	[2F	.	[2A	.
=4	=4	=4	=4	=4
0r	4F]	0r	4A]	1f
.	4G	.	4B-y	.
.	2A	.	2c	.
.	2B-y	.	2d	1g
.	[2c	.	2e	.
=5	=5	=5	=5	=5
1.F	4c]	0r	2f	0a
.	4B-y	.	.	.
.	2.A	.	1c	.
.	4G	.	.	.
2F	[2F	.	2c	.
=6	=6	=6	=6	=6
2.D	4F]	1.F	2d	0r
.	4E	.	.	.
.	1D	.	2A	.
4C	.	.	.	.
2BB-y	.	.	2B-y	.
2AA	2C	2F	[2c	.
=7	=7	=7	=7	=7
2BB-y	2.F	1D	2c]	0r
2BB-y	.	.	2B-y	.
.	4E	.	.	.
2FF	4F	1C	2.A	.
.	4G	.	.	.
[2FF	[2A	.	.	.
.	.	.	4B-y	.
=8	=8	=8	=8	=8
4FF]	4A]	1F	2c	1r
4GG	4G	.	.	.
2AA	1F	.	2c	.
2BB-y	.	1G	2B-y	2r
2C	2E	.	2G	[2cc
=9	=9	=9	=9	=9
1FF	1F	0A	2r	2cc]
.	.	.	1c	2cc
[1F	2r	.	.	1a
.	2c	.	2c	.
=10	=10	=10	=10	=10
2F]	2c	0r	1A	2f
2F	1A	.	.	1f
1D	.	.	1F	.
.	[2F	.	.	2f
=11	=11	=11	=11	=11
1BB-y	4F]	0r	1B-y	2d
.	4E	.	.	.
.	4F	.	.	2d
.	4G	.	.	.
2.F	2A	.	1c	[1f
.	[2F	.	.	.
4E	.	.	.	.
=12	=12	=12	=12	=12
1D	4F]	0A	1d	2f]
.	4G	.	.	.
.	4A	.	.	2f
.	4B-y	.	.	.
2C	[1c	.	1r	2e
[2C	.	.	.	4c
.	.	.	.	4d
=13	=13	=13	=13	=13
2C]	1c]	1G	2r	4e
.	.	.	.	4f
2C	.	.	2c	4g
.	.	.	.	4e
2BB-y	2r	[1B-y	2d	2f
[2GG	2G	.	[2d	[2g
=14	=14	=14	=14	=14
2GG]	2B-y	2B-]	2d]	4g]
.	.	.	.	4f
2AA	2c	2A	2c	1f
2BB-y	2d	2G	2B-y	.
2C	2c	2G	2G	2e
=15	=15	=15	=15	=15
0FF	2r	0F	2A	0f
.	1C	.	2A	.
.	.	.	2.c	.
.	[2F	.	.	.
.	.	.	4c	.
=16	=16	=16	=16	=16
0r	2F]	0r	2c	2r
.	2E	.	2c	2c
.	2F	.	2d	2c
.	2G	.	2d	2B-y
=17	=17	=17	=17	=17
1AA	2A	0r	2c	2.c
.	2A	.	2.C	.
.	.	.	.	4d
[1C	[1G	.	.	2e
.	.	.	4D	.
.	.	.	4E	[2c
.	.	.	4F	.
=18	=18	=18	=18	=18
2C]	1G]	0r	2G	4c]
.	.	.	.	4d
2C	.	.	2C	4e
.	.	.	.	4f
2C	2r	.	1c	2g
2C	2E	.	.	[2a
=19	=19	=19	=19	=19
2D	2F	1A	1r	2a]
2D	2F	.	.	4g
.	.	.	.	4f
2C	2G	[1c	2r	1e
2C	[2C	.	2G	.
=20	=20	=20	=20	=20
2AA	2C]	2c]	1.A	1r
2FF	1F	2c	.	.
1C	.	2c	.	2r
.	2E	2c	2G	2g
=21	=21	=21	=21	=21
1r	2F	1d	2A	2f
.	2G	.	2B-y	2d
[1F	2.A	1c	2c	2.f
.	.	.	2c	.
.	4B-y	.	.	8eL
.	.	.	.	8dJ
=22	=22	=22	=22	=22
2F]	2c	1A	1F	2c
2D	4F	.	.	1d
.	4G	.	.	.
2.F	4A	1r	2r	.
.	4B-y	.	.	.
.	2c	.	[2A	2c
4E	.	.	.	.
=23	=23	=23	=23	=23
1D	2c	0r	2A]	1f
.	2BnXi	.	2F	.
1C	2c	.	2A	[1e
.	[2C	.	[2G	.
=24	=24	=24	=24	=24
2r	4C]	0r	4G]	1e]
.	4D	.	4F	.
1C	4E	.	4E	.
.	4F	.	4D	.
.	2G	.	2C	2r
2AA	2C	.	2c	2a
=25	=25	=25	=25	=25
2.BB-y	2D	0r	1.B-y	2g
.	1F	.	.	2f
4AA	.	.	.	.
1GG	.	.	.	[1b-y
.	2E	.	2G	.
=26	=26	=26	=26	=26
2FF	1F	0c	1A	2b-]
1F	.	.	.	2a
.	1C	.	1r	1g
2E	.	.	.	.
=27	=27	=27	=27	=27
1F	1c	1A	2r	[0f
.	.	.	2.F	.
[1BB-y	[1d	[1B-y	.	.
.	.	.	4E	.
.	.	.	4D	.
.	.	.	4C	.
=28	=28	=28	=28	=28
1BB-]	2d]	2B-]	4D	1f]
.	.	.	4C	.
.	2d	2A	1F	.
1C	2c	1G	.	2r
.	2G	.	2E	2c
=29	=29	=29	=29	=29
0FF	2A	0F	2F	2c
.	1A	.	1c	2c
.	.	.	.	1f
.	2A	.	2c	.
=30	=30	=30	=30	=30
1r	2B-y	0r	2d	1g
.	2.c	.	2e	.
[1F	.	.	2f	2a
.	4B-y	.	.	.
.	4A	.	2c	4f
.	4G	.	.	4g
=31	=31	=31	=31	=31
2F]	1F	0r	2.f	4a
.	.	.	.	4b-y
2F	.	.	.	2.cc
.	.	.	4e	.
1G	2r	.	1d	.
.	.	.	.	4a
.	2B-y	.	.	2b-y
=32	=32	=32	=32	=32
2E	2c	1r	2e	2g
2.F	2c	.	2A	2.a
.	1A	[1F	2r	.
4E	.	.	.	4g
4D	.	.	[2c	4f
4C	.	.	.	4e
=33	=33	=33	=33	=33
1D	2r	2F]	4c]	1f
.	.	.	8B-yL	.
.	.	.	8AJ	.
.	2D	2F	2B-y	.
1C	2E	1G	2.c	[1e
.	[2G	.	.	.
.	.	.	8B-yL	.
.	.	.	8AJ	.
=34	=34	=34	=34	=34
1C	4G]	1E	2G	1e]
.	4F	.	.	.
.	4E	.	1c	.
.	4D	.	.	.
2AA	2C	[1F	.	1r
[2BB-y	[2D	.	2B-y	.
=35	=35	=35	=35	=35
2BB-]	4D]	1F]	2d	0r
.	4C	.	.	.
2AA	1F	.	2c	.
2GG	.	1G	2.B-y	.
2GG	2E	.	.	.
.	.	.	4c	.
=36	=36	=36	=36	=36
0FF	1F	0A	2d	1r
.	.	.	2.c	.
.	2r	.	.	[1cc
.	.	.	4B-y	.
.	2F	.	4A	.
.	.	.	4G	.
=37	=37	=37	=37	=37
0r	1A	0r	2F	2cc]
.	.	.	2c	2cc
.	1G	.	2d	2b-y
.	.	.	2e	2g
=38	=38	=38	=38	=38
2r	1F	0r	2f	2.a
1F	.	.	2F	.
.	.	.	.	4b-y
.	2r	.	2.A	2.cc
2F	[2c	.	.	.
.	.	.	4B-y	8b-yL
.	.	.	.	8aJ
=39	=39	=39	=39	=39
2E	2c]	0r	1c	2g
2C	2c	.	.	2e
2D	2B-y	.	1r	2f
2E	2G	.	.	2g
=40	=40	=40	=40	=40
1F	2.A	0c	2r	2.c
.	.	.	2A	.
.	4B-y	.	.	4d
2r	2.c	.	2A	4e
.	.	.	.	4f
[2C	.	.	2G	[2g
.	8B-yL	.	.	.
.	8AJ	.	.	.
=41	=41	=41	=41	=41
2C]	2G	1c	1c	4g]
.	.	.	.	4e
2AA	2C	.	.	2a
2BB-y	2r	1B-y	1d	2g
2BB-y	2D	.	.	[2f
=42	=42	=42	=42	=42
2C	2E	1G	1c	2f]
2C	2G	.	.	2e
1FF	2.F	[1A	1c	2f
.	.	.	.	2c
.	4E	.	.	.
=43	=43	=43	=43	=43
0r	1D	2A]	1F	2d
.	.	2B-y	.	1f
.	1C	1c	1G	.
.	.	.	.	2e
=44	=44	=44	=44	=44
0r	1.G	0r	1.B-y	1d
.	.	.	.	[1c
.	[2F	.	2A	.
=45	=45	=45	=45	=45
1C	2F]	0r	1G	1c]
.	2E	.	.	.
2D	1A	.	1F	2r
[2F	.	.	.	2c
=46	=46	=46	=46	=46
2F]	1G	1r	2r	2d
2E	.	.	1c	2e
1D	1r	1F	.	2f
.	.	.	2B-y	2f
=47	=47	=47	=47	=47
1C	2r	1G	1c	2.e
.	2G	.	.	.
.	.	.	.	4f
1r	2G	[1B-y	[1d	4g
.	.	.	.	4a
.	2G	.	.	[2g
=48	=48	=48	=48	=48
1BB-y	1D	2B-]	1d]	4g]
.	.	.	.	4f
.	.	2A	.	1f
2C	2E	1G	2r	.
[2E-i	2C	.	2c	2e-X
=49	=49	=49	=49	=49
2E-]	2r	1F	2c	1f
2D	2F	.	2d	.
1C	2G	1r	1e	1r
.	2A	.	.	.
=50	=50	=50	=50	=50
1.BB-y	2.B-y	0r	1.d	1f
.	4A	.	.	.
.	4G	.	.	2g
.	4F	.	.	.
2AA	[2F	.	2c	2a
=51	=51	=51	=51	=51
1GG	2F]	1r	2B-y	1.b-y
.	2E	.	2G	.
1FF	2D	1F	2.A	.
.	[2C	.	.	2a
.	.	.	4B-y	.
=52	=52	=52	=52	=52
1C	4C]	1G	1c	1g
.	4D	.	.	.
.	2E	.	.	.
2r	[1D	[1B-y	1d	2f
2BB-y	.	.	.	[2g
=53	=53	=53	=53	=53
2GG	2D]	2B-]	2r	4g]
.	.	.	.	4f
2AA	2C	2A	2c	1f
2BB-y	2D	1G	2B-y	.
2C	2E	.	2G	2e
=54	=54	=54	=54	=54
1FF	2C	0F	1A	0f
.	1c	.	.	.
1F	.	.	2r	.
.	2A	.	2c	.
=55	=55	=55	=55	=55
2D	2B-y	0r	2F	0r
2E	2G	.	2.c	.
2.F	2A	.	.	.
.	.	.	4B-y	.
.	[2F	.	[2A	.
8EL	.	.	.	.
8DJ	.	.	.	.
=56	=56	=56	=56	=56
2C	2F]	0r	2A]	1cc
2C	2E	.	2.G	.
2D	2F	.	.	2a
.	.	.	4F	.
2BB-y	2D	.	[2F	2b-y
=57	=57	=57	=57	=57
1C	4E	1c	2F]	2g
.	4C	.	.	.
.	1c	.	2E	2.a
1D	.	2A	2F	.
.	.	.	.	4g
.	2BnXi	2B-y	2D	[2f
=58	=58	=58	=58	=58
2C	1c	2G	4E	2f]
.	.	.	4C	.
2AA	.	2.A	1c	2e
1BB-y	1r	.	.	1d
.	.	4G	.	.
.	.	[2F	2B-y	.
=59	=59	=59	=59	=59
1C	2r	2F]	2A	2c
.	2C	2E	2.G	1g
2BB-y	2D	1F	.	.
.	.	.	4F	.
2AA	[2C	.	[2F	2a
=60	=60	=60	=60	=60
1GG	2C]	1G	2F]	1b-y
.	2BB-y	.	2E	.
[1FF	[1C	1A	2.F	2a
.	.	.	.	[2cc
.	.	.	4G	.
=61	=61	=61	=61	=61
1FF]	1C]	1F	4A	2cc]
.	.	.	4F	.
.	.	.	2f	2a
1r	2r	2G	2d	2b-y
.	[2c	2C	2e	2g
=62	=62	=62	=62	=62
2r	2c]	1F	2f	2.a
2F	2A	.	2c	.
.	.	.	.	4g
2D	2B-y	1r	2d	2f
2E	2G	.	[2c	2g
=63	=63	=63	=63	=63
2.F	2A	1r	4c]	1c
.	.	.	4B-y	.
.	1F	.	1A	.
8EL	.	.	.	.
8DJ	.	.	.	.
2C	.	1c	.	1r
2C	2E	.	[2G	.
=64	=64	=64	=64	=64
2D	2F	2A	4G]	1r
.	.	.	4F	.
2BB-y	2D	2B-y	1F	.
1C	4E	2A	.	2r
.	4C	.	.	.
.	[2c	[2G	2E	2g
=65	=65	=65	=65	=65
2AA	2c]	4G]	1F	2a
.	.	4F	.	.
2BB-y	1d	1F	.	2f
1GG	.	.	1G	1b-y
.	2G	2E	.	.
=66	=66	=66	=66	=66
2FF	2.c	1F	2A	2.a
1F	.	.	1c	.
.	4B-y	.	.	4g
.	2A	1c	.	2f
2C	2G	.	2e	[2g
=67	=67	=67	=67	=67
2D	2F	2A	1d	4g]
.	.	.	.	4f
2BB-y	2D	2B-y	.	1f
1C	1E	1G	2c	.
.	.	.	2c	2e
=68	=68	=68	=68	=68
2.FF	2C	[0Fl	2.A	[0fl
.	1c	.	.	.
4GG	.	.	4B-y	.
2AA	.	.	2c	.
[2BB-y	2B-y	.	2d	.
=69	=69	=69	=69	=69
2BB-]	2d	0F_	2B-y	0f_
2AA	2c	.	2c	.
1BB-y	1B-y	.	1d	.
=70	=70	=70	=70	=70
00FFl	00Al	00F]	00cl	00f]
==	==	==	==	==
*-	*-	*-	*-	*-
!!!system-decoration: [*]
!!!RDF**kern: i = editorial accidental
!!!RDF**kern: l = terminal long
!!!ENC: Benjamin Ory
!!!END: 2024/12/8
!!!EED: Benjamin Ory
!!!EEV: 2024/12/08
!!!YEC: Copyright 2024 Benjamin Ory, All Rights Reserved
!!!ONB: Translated from MusicXML on 2024/12/08